!!!!SEGMENT: pl-kozmzk--mzk-m-159--028_walczynski-franciszek--praeludia-organi-op-5-maestoso.krn
!!!cenid: 18xx:2771
!!!COM: Walczyński, Franciszek
!!!COM-rismID: pe30021989
!!!CDT: ~1852-1937
!!!CNT: Polish
!!!GTL: Praeludia organi op. 5
!!!OTL: 28. Maestoso
!!!PDT: 1894
!!!AGN: Secular; Prelude
!!!SMS-siglum: PL-KOZmzk
!!!SMS-shelfmark: mzk/m/159
!!!SMS-shelfwork: 028 G
!!!SMS-variant:
!!!SMS-altvar:
!!!NIFC-rismSourceID: 1001118829
!!!NIFC-islandoraID: pl-kozmzk:2265
!!!URL-pdf-islandora: https://repozytorium.nifc.pl/islandora/object/pl-kozmzk%3A2265/datastream/PDF/view
!!!URL-scan: https://polish.musicsources.pl/pl/lokalizacje/galeria/druki-muzyczne/7406 @EN{Scan on Polish Music Herritage in Open Access Website} @PL{Skany w portalu Dziedzictwo Muzyki Polskiej w otwartym dostępie}
!!!ONB-nifc: UWAGA: numeracja plików zgodna z numeracją źrodłową
!!!OMD: 28. Maestoso.
!!!AIN: 1 empty 1 organ
!!!key:
**kern	**kern	**dynam
*part2	*part1	*part1
*staff2	*staff1	*
*Iorgan	*Iempty	*
*I"[Organo]	*	*
*clefF4	*clefG2	*
*k[f#c#g#d#a#e#]	*k[f#c#g#d#a#e#]	*
*e-:	*e-:	*
*M4/4	*M4/4	*
*met(c)	*met(c)	*
=1	=1	=1
*^	*^	*
(<4A#/	4A#\	(4a#/	4a#\	f <
8F#/L	8F#\L	8f#/L	8f#\L	.
8E#/J	8E#\J	8e#/J	8e#\J	.
4D#/	4D#\	4d#/	4d#\	.
4B/	4B\	4b/	4b\	[[
=2	=2	=2	=2	=2
4A#/	4A#\	4a#/	4a#\	>
8F#/L	8F#\L	8f#/L	8f#\L	.
8E#/J	8E#\J	8e#/J	8e#\J	.
4D#/	4D#\	4d#/	4d#\	.
4G#/)	4G#\	4g#/)	4g#\	]]
=3	=3	=3	=3	=3
(4A#/	4D#\	(4f#/	4f#\	p
4B/	4GG#\	4g#/	2d#\	.
4.A#^/	2AA#\	4f#/	.	.
.	.	4e#/	4c#\	.
[8G#/	.	.	.	.
=4	=4	=4	=4	=4
4G#/]	2.D#\	2.d#/)	2.d#\	.
8F#/L	.	.	.	.
8E#/J	.	.	.	.
4F#/)	.	.	.	.
4rF	4rFF	4ryy	4ryy	.
=5	=5	=5	=5	=5
(<4c#/	4c#\	(4cc#/	4cc#\	f
8A#/L	8A#\L	8a#/L	8a#\L	.
8G#/J	8G#\J	8g#/J	8g#\J	<
4F#/	4F#\	4f#/	4f#\	.
4d#/	4d#\	4dd#/	4dd#\	[[
=6	=6	=6	=6	=6
4c#/	4c#\	4cc#/	4cc#\	.
8A#/L	8A#\L	8a#/L	8a#\L	>
8G#/J	8G#\J	8g#/J	8g#\J	.
4F#/	4F#\	4f#/	4f#\	.
4B/)	4B\	4b/)	4b\	]]
=7	=7	=7	=7	=7
[1A#	4r	(2.a#/	4r	p
.	(8AA#\L	.	(8c##X\L	.
.	8BB#X\J	.	8d#\J	.
.	2C##X\	.	2e#\	.
.	.	[4g#/	.	.
=8	=8	=8	=8	=8
2.A#/]	2.D#\)	4g#/]	2.d#\)	.
.	.	8f#/L	.	.
.	.	8e#/J	.	.
.	.	4f#/)	.	.
4r	4ryy	4r	4ryy	.
=9	=9	=9	=9	=9
(<4F##X/	4F##\	(4f##X/	4f##\	f
8G#/L	8G#\L	8g#/L	8g#\L	.
8A#/J	8A#\J	8a#/J	8a#\J	.
4B/	4B\	4b/	4b\	.
4G#/	4G#\	4g#/	4g#\	.
=10	=10	=10	=10	=10
4d#/	4d#\	4dd#/	4dd#\	.
8c#/L	8c#\L	8cc#/L	8cc#\L	.
8B/J	8B\J	8b/J	8b\J	.
4A#/	4A#\	4a#/	4a#\	.
4B/)	4G#\	4d#/)	4d#\	.
=11	=11	=11	=11	=11
(4A#/	4A#\	(2f#/	(2.d#\	pp <
4G##X/	4G##\	.	.	.
4.A#/	4A#\	4e#/	.	.
.	4AA#\	4f#/	4c##X\)	.
!LO:N:acc=n#	!	!	!	!
[8G#/	.	.	.	[
=12	=12	=12	=12	=12
4G#/])	1D#;	1d#;)	1d#	>
8F#/L	.	.	.	.
8E#/J	.	.	.	.
2F#;/	.	.	.	]]
*v	*v	*	*	*
*	*v	*v	*
==	==	==
*-	*-	*-
!!!system-decoration: {(s1,s2)}
!!!EED: Andrzej Borzym
!!!EEV: 2021-08-08
!!!RDF**kern: > = above
!!!RDF**kern: < = below
!!!ENC: Krzysztof Stępień
!!!END: 2021-07-26
